X:1
T:Gather the Reapers Home
T:Gather the Reapers Home
T:John Robson Sweney
T:Jennie E. Johnson, 1882
T:Public Domain Courtesy of the Cyber Hymnal™
T:Public Domain Courtesy of the Cyber Hymnal™
C:John Robson Sweney
Z:Public Domain
Z:Courtesy of the Cyber Hymnal™
%%score ( 1 2 ) ( 3 4 )
L:1/8
Q:1/4=104
M:4/4
K:Bb
V:1 treble 
V:2 treble 
V:3 bass 
V:4 bass 
V:1
 [B,D][CE] | [DF]2 [DB]2 [DB]2 [DB][Fd] | [Ec]2 [EG]2 [EG]2 [Gc][GB] | [FA]3 [FA] [EG]2 [EF]2 | %4
w: 1.~Have ye|heard the song from the|gold- en land? Have ye|heard the glad new|
w: 2.~They are|look- ing down from the|gold- en land, Our be-|loved are look- ing|
w: 3.~O the|song rolls on from the|gold- en land, And our|hearts are strong to-|
w: 4.~O the|song rolls on from the|gold- en land, From its|vales of joy and|
 ([DF]4 [B,D]2) [B,D][CE] | [DF]2 [DB]2 [DB]2 [DB][Fd] | [Ec]2 [EG]2 [EG]2 [Gc][GB] | %7
w: song? * Let us|bind our sheaves with a|will- ing hand, For the|
w: down; * They have|done their work, they have|borne their cross, And re-|
w: day; * For it|nerves our souls with its|mu- sic sweet, As we|
w: flowers; * And we|feel and know by a|liv- ing faith That its|
 [FA]3 [FA] [EG]2 [EA]2 | [DB]6 ||"^Refrain" [DB]2 | [Fc]2 [CF][CF] (FG)[FA]F | %11
w: time will not be|long.|||
w: ceived their prom- ised|crown.|||
w: toil in noon- tide|ray.|||
w: tones will soon be|ours.|||
 [FB]2 [Fc]2 [Fd]2 [Fd]2 | [Fe]2 (dc) [Fd]2 [DB][DB] | [Fc]3 [Fd] [Fc]2 ([B,D][CE]) | %14
w: |||
w: |||
w: |||
w: |||
 [DF]2 [DB][DB] [DB]2 [DB][Fd] | [Ec]2 [EG]2 [EG]2 (cB) | [FA]2 [FA][FA] [EG]2 [EA]2 | [DB]6 |] %18
w: ||||
w: ||||
w: ||||
w: ||||
V:2
 x2 | x8 | x8 | x8 | x8 | x8 | x8 | x8 | x6 || x2 | x4 C2 F x | x8 | x2 F2 x4 | x8 | x8 | x6 G2 | %16
 x8 | x6 |] %18
V:3
 [B,,F,][B,,F,] | [B,,B,]2 [B,,F,]2 [B,,F,]2 [B,,F,][B,,F,] | [E,G,]2 [E,C]2 [E,C]2 [E,E][E,C] | %3
w: ~ ~|~ ~ ~ ~ ~|~ ~ ~ ~ ~|
 [F,C]3 [F,C] [F,B,]2 [F,A,]2 | (B,4 F,2) [B,,F,][B,,F,] | %5
w: ~ ~ ~ ~|~ * ~ ~|
 [B,,F,]2 [B,,F,]2 [B,,F,]2 [B,,F,][B,,B,] | [E,G,]2 [E,C]2 [E,C]2 [E,E][E,C] | %7
w: ~ ~ ~ ~ ~|~ ~ ~ ~ ~|
 [F,C]3 [F,C] [F,B,]2 F,2 | [B,,F,]6 || [B,,B,]2 | [F,A,]2 [F,A,][F,A,] (A,B,)[F,C][E,A,] | %11
w: ~ ~ ~ ~|~|The|Lord of the har- * vest will|
 [D,B,]2 [F,A,]2 B,2 B,2 | [A,C]2 B,2 B,2 [B,,B,][B,,B,] | [F,A,]3 [F,B,] A,2 F,2 | %14
w: soon ap- pear, His|smile, His voice we shall|see and hear; The|
 [B,,B,]2 [B,,F,][B,,F,] [B,,F,]2 [B,,F,][B,,B,] | [E,G,]2 [E,C]2 [E,C]2 [E,C]2 | %16
w: Lord of the har- vest will|soon ap- pear, And|
 [F,C]2 [F,C][F,C] [F,B,]2 [F,,F,]2 | [B,,F,]6 |] %18
w: ga- ther the reap- ers|home.|
V:4
 x2 | x8 | x8 | x8 | B,,6 x2 | x8 | x8 | x6 F,2 | x6 || x2 | x4 F,2 x2 | x4 B,2 B,2 | %12
 x2 B,2 B,2 x2 | x4 (F,E,) (D,C,) | x8 | x8 | x8 | x6 |] %18

